X:1
T:Blessèd Are They Who Do His Commandments
T:Blessèd Are They Who Do His Commandments
T:Alfred Powers
T:Henry Robert Trickett, 1884
T:Public Domain Courtesy of the Cyber Hymnal™
C:Alfred Powers
Z:Public Domain
Z:Courtesy of the Cyber Hymnal™
%%score ( 1 2 ) ( 3 4 )
L:1/8
Q:1/4=100
M:4/4
K:Ab
V:1 treble 
V:2 treble 
V:3 bass 
V:4 bass 
V:1
 [Ec][Ec] [Ec]2 [DB]2 [CA]2 | [CE]2 [=B,=D][CE] [_DF]2 [CE]2 | (EF) (GA) [EB]2 [Ec]2 | %3
w: 1.~Bless- èd are they who|do His com- mand- ments,|They * shall * claim the|
w: 2.~Bless- èd are they who|do His com- mand- ments,|They * shall * wear the|
w: 3.~Bless- èd are they who|do His com- mand- ments,|They * shall * stand be-|
 [Ed]2 [Ge]2 [Ac]4 | [Ec][Ec] [Ec]2 [EB]2 [EA]2 | [CE]2 ([=B,=D][CE]) [_DF]2 [CE]2 | %6
w: tree of life;|In- to the ci- ty|they shall * en- ter,|
w: robes of white;|Un- der the por- tals|God shall * lead them,|
w: fore the throne;|In- to the life of|joy e- * ter- nal,|
 (EF) (GA) [EB]2 [Ec]2 | [Ed]2 G2 [CA]4 ||"^Refrain" B4 ([Ge]2 [Gd]2) | c4 A4 | B4 e2 d2 | c8 | %12
w: They * are * vic- tors|in the strife.|||||
w: They * shall * serve Him|day and night.|Bless- èd, *|bless- èd,|bless- èd are|they.|
w: God * shall * claim them|for His own.|||||
 [Ec][Ec] [Ec]2 [DB]2 [CA]2 | [CE]2 ([=B,=D][CE]) [_DF]2 [CE]2 | (EF) (GA) [EB]2 [Ge]2 | %15
w: |||
w: |||
w: |||
 [Ac][Ac] [GB]2 A4 |] %16
w: |
w: |
w: |
V:2
 x8 | x8 | B,2 E2 x4 | x8 | x8 | x8 | B,2 E2 x4 | x2 (ED) x4 || (EE E2) x4 | (AA A2) (E2 E2) | %10
 (GG G2) G4 | (AA A2 A4) | x8 | x8 | B,2 E2 x4 | x4 A4 |] %16
V:3
 A,A, A,2 A,2 A,2 | [A,,A,]2 [A,,A,][A,,A,] [A,,A,]2 [A,,A,]2 | (G,A,) (B,C) [E,D]2 [E,C]2 | %3
w: ~ ~ ~ ~ ~|~ ~ ~ ~ ~|~ * ~ * ~ ~|
 [E,B,]2 [E,B,]2 A,4 | A,A, A,2 [A,D]2 [A,C]2 | [A,,A,]2 ([A,,A,][A,,A,]) [A,,A,]2 [A,,A,]2 | %6
w: ~ ~ ~|~ ~ ~ ~ ~|~ ~ * ~ ~|
 (G,A,) (B,C) [E,D]2 [E,C]2 | [E,B,]2 [E,B,]2 [A,,A,]4 || [E,G,][E,G,] [E,G,]2 [E,B,]2 [E,B,]2 | %9
w: ~ * ~ * ~ ~|~ ~ ~|Bless- èd are they who|
 A,A, A,2 [A,C]2 [A,C]2 | [E,E][E,E] [E,E]2 [E,B,]4 | A,A, [A,C]2 [A,E]4 | %12
w: do His com- mand- ments,|Bless- èd are they,|bless- èd are they;|
 [A,,A,][A,,A,] [A,,A,]2 [A,,A,]2 [A,,A,]2 | [A,,A,]2 [A,,A,]2 [A,,A,]2 [A,,A,]2 | %14
w: In- to the ci- ty|they shall en- ter,|
 (G,A,) (B,C) [E,D]2 [E,B,]2 | A,A, (ED) [A,,C]4 |] %16
w: Bless- * èd, * bless- èd,|bless- èd are * they.|
V:4
 A,A, A,2 A,2 A,2 | x8 | E,2 E,2 x4 | x4 A,4 | A,A, A,2 x4 | x8 | E,2 E,2 x4 | x8 || x8 | %9
 A,A, A,2 x4 | x8 | A,A, x6 | x8 | x8 | E,2 E,2 x4 | A,A, E,2 x4 |] %16

